Newaita-dark/apps/16/media-optical-data-new.svg

<?xml version="1.0" encoding="UTF-8"?>
<svg xmlns="http://www.w3.org/2000/svg" xmlns:xlink="http://www.w3.org/1999/xlink" width="16px" height="16px" viewBox="0 0 16 16" version="1.1">
<defs>
<radialGradient id="radial0" gradientUnits="userSpaceOnUse" cx="450.908936" cy="189.579361" fx="450.908936" fy="189.579361" r="21.166656" gradientTransform="matrix(0.0000000870852,-0.0390662,-0.0703192,-0.0000000507693,22.261576,31.797665)">
<stop offset="0" style="stop-color:rgb(0%,0%,0%);stop-opacity:0.313726;"/>
<stop offset="0.222222" style="stop-color:rgb(0%,0%,0%);stop-opacity:0.27451;"/>
<stop offset="1" style="stop-color:rgb(0%,0%,0%);stop-opacity:0;"/>
</radialGradient>
<radialGradient id="radial1" gradientUnits="userSpaceOnUse" cx="450.908936" cy="189.579361" fx="450.908936" fy="189.579361" r="21.166656" gradientTransform="matrix(-0.0000000870852,0.0390662,0.0703192,0.0000000507693,-6.385059,-3.763741)">
<stop offset="0" style="stop-color:rgb(0%,0%,0%);stop-opacity:0.313726;"/>
<stop offset="0.222222" style="stop-color:rgb(0%,0%,0%);stop-opacity:0.27451;"/>
<stop offset="1" style="stop-color:rgb(0%,0%,0%);stop-opacity:0;"/>
</radialGradient>
<radialGradient id="radial2" gradientUnits="userSpaceOnUse" cx="450.908936" cy="189.579361" fx="450.908936" fy="189.579361" r="21.166656" gradientTransform="matrix(-0.0000000870852,-0.0390662,0.0703192,-0.0000000507693,-6.385059,31.797665)">
<stop offset="0" style="stop-color:rgb(0%,0%,0%);stop-opacity:0.313726;"/>
<stop offset="0.222222" style="stop-color:rgb(0%,0%,0%);stop-opacity:0.27451;"/>
<stop offset="1" style="stop-color:rgb(0%,0%,0%);stop-opacity:0;"/>
</radialGradient>
<radialGradient id="radial3" gradientUnits="userSpaceOnUse" cx="450.908936" cy="189.579361" fx="450.908936" fy="189.579361" r="21.166656" gradientTransform="matrix(0.0000000870852,0.0390662,-0.0703192,0.0000000507693,22.261575,-3.763741)">
<stop offset="0" style="stop-color:rgb(0%,0%,0%);stop-opacity:0.313726;"/>
<stop offset="0.222222" style="stop-color:rgb(0%,0%,0%);stop-opacity:0.27451;"/>
<stop offset="1" style="stop-color:rgb(0%,0%,0%);stop-opacity:0;"/>
</radialGradient>
<linearGradient id="linear0" gradientUnits="userSpaceOnUse" x1="255.323059" y1="233.5" x2="255.323044" y2="254.666656" gradientTransform="matrix(0.00668003,0,0,0.031253,6.232693,6.719392)">
<stop offset="0" style="stop-color:rgb(0%,0%,0%);stop-opacity:0.27451;"/>
<stop offset="1" style="stop-color:rgb(0%,0%,0%);stop-opacity:0;"/>
</linearGradient>
<linearGradient id="linear1" gradientUnits="userSpaceOnUse" x1="254" y1="-168.666672" x2="254" y2="233.5" gradientTransform="matrix(0.031253,0,0,0.031253,0,6.719391)">
<stop offset="0" style="stop-color:rgb(87.843138%,87.843138%,87.843138%);stop-opacity:1;"/>
<stop offset="1" style="stop-color:rgb(74.117649%,74.117649%,74.117649%);stop-opacity:1;"/>
</linearGradient>
<linearGradient id="linear2" gradientUnits="userSpaceOnUse" x1="960" y1="1695.118164" x2="960" y2="1315.118164" gradientTransform="matrix(0.00826902,0,0,0.00826902,0,0)">
<stop offset="0" style="stop-color:rgb(100%,43.921569%,26.274511%);stop-opacity:1;"/>
<stop offset="1" style="stop-color:rgb(100%,54.11765%,39.607844%);stop-opacity:1;"/>
</linearGradient>
<linearGradient id="linear3" gradientUnits="userSpaceOnUse" x1="254" y1="117.083344" x2="254" y2="-52.25" gradientTransform="matrix(3.779528,0,0,3.779528,0,812.59845)">
<stop offset="0" style="stop-color:rgb(96.078432%,96.078432%,96.078432%);stop-opacity:1;"/>
<stop offset="1" style="stop-color:rgb(87.843138%,87.843138%,87.843138%);stop-opacity:1;"/>
</linearGradient>
<filter id="alpha" filterUnits="objectBoundingBox" x="0%" y="0%" width="100%" height="100%">
  <feColorMatrix type="matrix" in="SourceGraphic" values="0 0 0 0 1 0 0 0 0 1 0 0 0 0 1 0 0 0 1 0"/>
</filter>
<mask id="mask0">
  <g filter="url(#alpha)">
<rect x="0" y="0" width="16" height="16" style="fill:rgb(0%,0%,0%);fill-opacity:0.99;stroke:none;"/>
  </g>
</mask>
<clipPath id="clip1">
  <rect x="0" y="0" width="16" height="16"/>
</clipPath>
<g id="surface5" clip-path="url(#clip1)">
<path style=" stroke:none;fill-rule:nonzero;fill:rgb(0%,0%,0%);fill-opacity:0.117647;" d="M 7.9375 12.363281 C 8.210938 12.363281 8.433594 12.585938 8.433594 12.859375 C 8.433594 13.132812 8.210938 13.355469 7.9375 13.355469 C 7.664062 13.355469 7.441406 13.132812 7.441406 12.859375 C 7.441406 12.585938 7.664062 12.363281 7.9375 12.363281 Z M 7.9375 12.363281 "/>
</g>
<mask id="mask1">
  <g filter="url(#alpha)">
<rect x="0" y="0" width="16" height="16" style="fill:rgb(0%,0%,0%);fill-opacity:0.99;stroke:none;"/>
  </g>
</mask>
<clipPath id="clip2">
  <rect x="0" y="0" width="16" height="16"/>
</clipPath>
<g id="surface8" clip-path="url(#clip2)">
<path style=" stroke:none;fill-rule:nonzero;fill:rgb(0%,0%,0%);fill-opacity:0.235294;" d="M 7.9375 12.363281 C 7.664062 12.363281 7.441406 12.585938 7.441406 12.859375 C 7.441406 12.886719 7.445312 12.914062 7.449219 12.941406 C 7.488281 12.707031 7.691406 12.527344 7.9375 12.527344 C 8.183594 12.527344 8.386719 12.707031 8.425781 12.941406 C 8.433594 12.914062 8.433594 12.886719 8.433594 12.859375 C 8.433594 12.585938 8.214844 12.363281 7.9375 12.363281 Z M 7.9375 12.363281 "/>
</g>
<mask id="mask2">
  <g filter="url(#alpha)">
<rect x="0" y="0" width="16" height="16" style="fill:rgb(0%,0%,0%);fill-opacity:0.99;stroke:none;"/>
  </g>
</mask>
<clipPath id="clip3">
  <rect x="0" y="0" width="16" height="16"/>
</clipPath>
<g id="surface11" clip-path="url(#clip3)">
<path style=" stroke:none;fill-rule:nonzero;fill:rgb(100%,100%,100%);fill-opacity:0.392157;" d="M 7.9375 13.519531 C 7.664062 13.519531 7.441406 13.300781 7.441406 13.023438 C 7.441406 12.996094 7.445312 12.96875 7.449219 12.941406 C 7.488281 13.175781 7.691406 13.355469 7.9375 13.355469 C 8.183594 13.355469 8.386719 13.175781 8.425781 12.941406 C 8.433594 12.96875 8.433594 12.996094 8.433594 13.023438 C 8.433594 13.300781 8.214844 13.519531 7.9375 13.519531 Z M 7.9375 13.519531 "/>
</g>
<mask id="mask3">
  <g filter="url(#alpha)">
<rect x="0" y="0" width="16" height="16" style="fill:rgb(0%,0%,0%);fill-opacity:0.99;stroke:none;"/>
  </g>
</mask>
<clipPath id="clip4">
  <rect x="0" y="0" width="16" height="16"/>
</clipPath>
<g id="surface14" clip-path="url(#clip4)">
<path style="fill:none;stroke-width:3;stroke-linecap:round;stroke-linejoin:round;stroke:rgb(12.941177%,12.941177%,12.941177%);stroke-opacity:1;stroke-miterlimit:4;" d="M 253.975747 180.587223 C 262.724911 180.587223 269.849231 187.711543 269.849231 196.460707 C 269.849231 205.209872 262.724911 212.334192 253.975747 212.334192 C 245.226582 212.334192 238.102262 205.209872 238.102262 196.460707 C 238.102262 187.711543 245.226582 180.587223 253.975747 180.587223 Z M 253.975747 180.587223 " transform="matrix(0.031253,0,0,0.031253,0,6.719392)"/>
</g>
</defs>
<g id="surface1">
<path style=" stroke:none;fill-rule:nonzero;fill:url(#radial0);" d="M 9.097656 14.015625 L 10.417969 14.015625 L 10.417969 13.355469 L 9.097656 13.355469 Z M 9.097656 14.015625 "/>
<path style=" stroke:none;fill-rule:nonzero;fill:url(#radial1);" d="M 6.78125 14.015625 L 5.457031 14.015625 L 5.457031 14.679688 L 6.78125 14.679688 Z M 6.78125 14.015625 "/>
<path style=" stroke:none;fill-rule:nonzero;fill:url(#radial2);" d="M 6.78125 14.015625 L 5.457031 14.015625 L 5.457031 13.355469 L 6.78125 13.355469 Z M 6.78125 14.015625 "/>
<path style=" stroke:none;fill-rule:nonzero;fill:url(#radial3);" d="M 9.097656 14.015625 L 10.417969 14.015625 L 10.417969 14.679688 L 9.097656 14.679688 Z M 9.097656 14.015625 "/>
<path style=" stroke:none;fill-rule:nonzero;fill:url(#linear0);" d="M 6.78125 13.851562 L 9.097656 13.851562 L 9.097656 14.679688 L 6.78125 14.679688 Z M 6.78125 13.851562 "/>
<path style=" stroke:none;fill-rule:nonzero;fill:url(#linear1);" d="M 7.9375 1.449219 C 4.457031 1.449219 1.652344 4.25 1.652344 7.734375 C 1.652344 11.214844 4.457031 14.015625 7.9375 14.015625 C 11.417969 14.015625 14.222656 11.214844 14.222656 7.734375 C 14.222656 4.25 11.417969 1.449219 7.9375 1.449219 Z M 7.9375 6.410156 C 8.671875 6.410156 9.261719 7 9.261719 7.734375 C 9.261719 8.464844 8.671875 9.054688 7.9375 9.054688 C 7.207031 9.054688 6.613281 8.464844 6.613281 7.734375 C 6.613281 7 7.207031 6.410156 7.9375 6.410156 Z M 7.9375 6.410156 "/>
<path style=" stroke:none;fill-rule:nonzero;fill:url(#linear2);" d="M 7.9375 11.289062 C 7.835938 11.289062 7.730469 11.371094 7.609375 11.535156 C 7.195312 12.113281 6.929688 12.449219 6.945312 12.859375 L 6.945312 13.941406 C 7.269531 13.992188 7.601562 14.015625 7.9375 14.015625 C 8.277344 14.015625 8.609375 13.992188 8.929688 13.941406 L 8.929688 12.859375 C 8.929688 12.445312 8.683594 12.113281 8.269531 11.535156 C 8.144531 11.371094 8.042969 11.289062 7.9375 11.289062 Z M 7.9375 11.289062 "/>
<path style=" stroke:none;fill-rule:nonzero;fill:rgb(0%,0%,0%);fill-opacity:0.196078;" d="M 7.9375 14.015625 C 4.457031 14.015625 1.652344 11.214844 1.652344 7.734375 C 1.652344 7.710938 1.652344 7.691406 1.652344 7.671875 C 1.6875 11.125 4.476562 13.894531 7.9375 13.894531 C 11.398438 13.894531 14.191406 11.125 14.222656 7.671875 C 14.222656 7.691406 14.222656 7.710938 14.222656 7.734375 C 14.222656 11.214844 11.417969 14.015625 7.9375 14.015625 Z M 7.9375 14.015625 "/>
<path style=" stroke:none;fill-rule:nonzero;fill:rgb(100%,100%,100%);fill-opacity:0.588235;" d="M 7.9375 1.449219 C 4.457031 1.449219 1.652344 4.25 1.652344 7.734375 C 1.652344 7.753906 1.652344 7.773438 1.652344 7.792969 C 1.6875 4.339844 4.476562 1.570312 7.9375 1.570312 C 11.398438 1.570312 14.191406 4.339844 14.222656 7.792969 C 14.222656 7.773438 14.222656 7.753906 14.222656 7.734375 C 14.222656 4.25 11.417969 1.449219 7.9375 1.449219 Z M 7.9375 1.449219 "/>
<path style=" stroke:none;fill-rule:nonzero;fill:rgb(12.941177%,12.941177%,12.941177%);fill-opacity:1;" d="M 7.9375 1.402344 C 4.429688 1.402344 1.605469 4.226562 1.605469 7.734375 C 1.605469 11.238281 4.429688 14.0625 7.9375 14.0625 C 11.445312 14.0625 14.269531 11.238281 14.269531 7.734375 C 14.269531 4.226562 11.445312 1.402344 7.9375 1.402344 Z M 7.9375 1.496094 C 11.394531 1.496094 14.175781 4.277344 14.175781 7.734375 C 14.175781 11.1875 11.394531 13.96875 7.9375 13.96875 C 4.480469 13.96875 1.699219 11.1875 1.699219 7.734375 C 1.699219 4.277344 4.480469 1.496094 7.9375 1.496094 Z M 7.9375 1.496094 "/>
<path style=" stroke:none;fill-rule:nonzero;fill:rgb(100%,100%,100%);fill-opacity:0.588235;" d="M 3.710938 3.503906 C 3.359375 3.867188 3.054688 4.269531 2.800781 4.707031 C 2.550781 5.144531 2.355469 5.609375 2.21875 6.09375 L 3.554688 6.453125 C 3.761719 5.710938 4.152344 5.035156 4.691406 4.484375 Z M 4.941406 4.734375 C 4.445312 5.238281 4.085938 5.863281 3.898438 6.542969 L 6.75 7.308594 C 6.804688 7.128906 6.902344 6.960938 7.027344 6.824219 Z M 9.140625 8.042969 C 9.109375 8.132812 9.074219 8.21875 9.027344 8.300781 C 8.980469 8.382812 8.921875 8.457031 8.859375 8.527344 L 10.949219 10.617188 C 11.445312 10.109375 11.800781 9.488281 11.992188 8.804688 Z M 12.332031 8.894531 C 12.125 9.636719 11.734375 10.316406 11.195312 10.863281 L 12.175781 11.84375 C 12.527344 11.484375 12.835938 11.082031 13.085938 10.644531 C 13.339844 10.207031 13.535156 9.742188 13.667969 9.253906 Z M 12.332031 8.894531 "/>
<path style="fill-rule:nonzero;fill:url(#linear3);stroke-width:11.338583;stroke-linecap:round;stroke-linejoin:miter;stroke:rgb(20%,20%,20%);stroke-opacity:1;stroke-miterlimit:4;" d="M 959.908384 615.059407 C 782.759937 615.059407 640.096388 757.722956 640.096388 935.343799 C 640.096388 1112.492246 782.759937 1255.155795 959.908384 1255.155795 C 1137.056831 1255.155795 1280.192776 1112.492246 1280.192776 935.343799 C 1280.192776 757.722956 1137.056831 615.059407 959.908384 615.059407 Z M 959.908384 775.201603 C 1048.718805 775.201603 1120.05058 846.533378 1120.05058 935.343799 C 1120.05058 1023.681825 1048.718805 1095.013599 959.908384 1095.013599 C 871.570358 1095.013599 799.766188 1023.681825 799.766188 935.343799 C 799.766188 846.533378 871.570358 775.201603 959.908384 775.201603 Z M 959.908384 775.201603 " transform="matrix(0.00826902,0,0,0.00826902,0,0)"/>
<path style=" stroke:none;fill-rule:nonzero;fill:rgb(100%,100%,100%);fill-opacity:0.392157;" d="M 7.9375 11.289062 C 7.835938 11.289062 7.730469 11.371094 7.609375 11.535156 C 7.195312 12.113281 6.929688 12.449219 6.945312 12.859375 L 6.945312 13.042969 C 6.957031 12.660156 7.214844 12.332031 7.609375 11.785156 C 7.730469 11.617188 7.835938 11.535156 7.9375 11.535156 C 8.042969 11.535156 8.144531 11.617188 8.269531 11.785156 C 8.683594 12.363281 8.929688 12.695312 8.929688 13.105469 L 8.929688 12.859375 C 8.929688 12.445312 8.683594 12.113281 8.269531 11.535156 C 8.144531 11.371094 8.042969 11.289062 7.9375 11.289062 Z M 7.9375 11.289062 "/>
<path style="fill:none;stroke-width:11.338583;stroke-linecap:square;stroke-linejoin:bevel;stroke:rgb(12.941177%,12.941177%,12.941177%);stroke-opacity:1;stroke-miterlimit:4;" d="M 959.908384 1365.22403 C 947.626091 1365.22403 934.871403 1375.144343 920.227132 1394.984969 C 870.153171 1464.899556 838.030252 1505.5256 839.919836 1555.127165 L 839.919836 1685.980818 C 879.128692 1692.121964 919.28234 1694.956339 959.908384 1694.956339 C 1001.006823 1694.956339 1041.160471 1692.121964 1079.896932 1685.980818 L 1079.896932 1555.127165 C 1079.896932 1505.053204 1050.135993 1464.899556 1000.062032 1394.984969 C 984.945364 1375.144343 972.663072 1365.22403 959.908384 1365.22403 Z M 959.908384 1365.22403 " transform="matrix(0.00826902,0,0,0.00826902,0,0)"/>
<path style=" stroke:none;fill-rule:nonzero;fill:rgb(0%,0%,0%);fill-opacity:0.235294;" d="M 6.945312 12.796875 C 6.945312 12.816406 6.945312 12.839844 6.945312 12.859375 Z M 6.945312 13.6875 L 6.945312 13.941406 C 7.269531 13.992188 7.601562 14.015625 7.9375 14.015625 C 8.277344 14.015625 8.609375 13.992188 8.929688 13.941406 L 8.929688 13.6875 C 8.609375 13.738281 8.277344 13.761719 7.9375 13.761719 C 7.601562 13.761719 7.269531 13.738281 6.945312 13.6875 Z M 6.945312 13.6875 "/>
<use xlink:href="#surface5" mask="url(#mask0)"/>
<use xlink:href="#surface8" mask="url(#mask1)"/>
<use xlink:href="#surface11" mask="url(#mask2)"/>
<use xlink:href="#surface14" mask="url(#mask3)"/>
</g>
</svg>

<svg xmlns="http://www.w3.org/2000/svg" width="16pt" height="16pt" viewBox="0 0 16 16"><defs><radialGradient id="a" gradientUnits="userSpaceOnUse" cx="450.909" cy="189.579" fx="450.909" fy="189.579" r="21.167" gradientTransform="matrix(0 -.03907 -.07032 0 22.262 31.798)"><stop offset="0" stop-opacity=".314"/><stop offset=".222" stop-opacity=".275"/><stop offset="1" stop-opacity="0"/></radialGradient><radialGradient id="b" gradientUnits="userSpaceOnUse" cx="450.909" cy="189.579" fx="450.909" fy="189.579" r="21.167" gradientTransform="matrix(0 .03907 .07032 0 -6.385 -3.764)"><stop offset="0" stop-opacity=".314"/><stop offset=".222" stop-opacity=".275"/><stop offset="1" stop-opacity="0"/></radialGradient><radialGradient id="c" gradientUnits="userSpaceOnUse" cx="450.909" cy="189.579" fx="450.909" fy="189.579" r="21.167" gradientTransform="matrix(0 -.03907 .07032 0 -6.385 31.798)"><stop offset="0" stop-opacity=".314"/><stop offset=".222" stop-opacity=".275"/><stop offset="1" stop-opacity="0"/></radialGradient><radialGradient id="d" gradientUnits="userSpaceOnUse" cx="450.909" cy="189.579" fx="450.909" fy="189.579" r="21.167" gradientTransform="matrix(0 .03907 -.07032 0 22.262 -3.764)"><stop offset="0" stop-opacity=".314"/><stop offset=".222" stop-opacity=".275"/><stop offset="1" stop-opacity="0"/></radialGradient><linearGradient id="e" gradientUnits="userSpaceOnUse" x1="255.323" y1="233.5" x2="255.323" y2="254.667" gradientTransform="matrix(.00668 0 0 .03125 6.233 6.72)"><stop offset="0" stop-opacity=".275"/><stop offset="1" stop-opacity="0"/></linearGradient><linearGradient id="f" gradientUnits="userSpaceOnUse" x1="254" y1="-168.667" x2="254" y2="233.5" gradientTransform="matrix(.03125 0 0 .03125 0 6.72)"><stop offset="0" stop-color="#e0e0e0"/><stop offset="1" stop-color="#bdbdbd"/></linearGradient><linearGradient id="g" gradientUnits="userSpaceOnUse" x1="960" y1="1695.118" x2="960" y2="1315.118" gradientTransform="rotate(.882) scale(.00827)"><stop offset="0" stop-color="#ff7043"/><stop offset="1" stop-color="#ff8a65"/></linearGradient><linearGradient id="h" gradientUnits="userSpaceOnUse" x1="254" y1="117.083" x2="254" y2="-52.25" gradientTransform="matrix(3.77953 0 0 3.77953 0 812.598)"><stop offset="0" stop-color="#f5f5f5"/><stop offset="1" stop-color="#e0e0e0"/></linearGradient></defs><path d="M9.098 14.016h1.32v-.66h-1.32zm0 0" fill="url(#a)"/><path d="M6.781 14.016H5.457v.664h1.324zm0 0" fill="url(#b)"/><path d="M6.781 14.016H5.457v-.66h1.324zm0 0" fill="url(#c)"/><path d="M9.098 14.016h1.32v.664h-1.32zm0 0" fill="url(#d)"/><path d="M6.781 13.852h2.317v.828H6.78zm0 0" fill="url(#e)"/><path d="M7.938 1.45a6.27 6.27 0 0 0-6.286 6.284 6.27 6.27 0 0 0 6.285 6.282 6.27 6.27 0 0 0 6.286-6.282A6.27 6.27 0 0 0 7.937 1.45zm0 4.96c.734 0 1.324.59 1.324 1.324 0 .73-.59 1.32-1.325 1.32a1.322 1.322 0 1 1 0-2.644zm0 0" fill="url(#f)"/><path d="M7.938 10.793c-.102 0-.208.082-.329.246-.414.578-.68.914-.664 1.324v1.325c0 .183.149.328.332.328h1.325c.18 0 .328-.145.328-.329v-1.324c0-.414-.246-.746-.66-1.324-.125-.164-.227-.246-.332-.246zm0 0" fill="url(#g)"/><path d="M7.938 14.016a6.27 6.27 0 0 1-6.286-6.282v-.062a6.273 6.273 0 0 0 6.285 6.223 6.27 6.27 0 0 0 6.286-6.223v.062a6.27 6.27 0 0 1-6.286 6.282zm0 0" fill-opacity=".196"/><path d="M7.938 1.45a6.27 6.27 0 0 0-6.286 6.284v.059A6.273 6.273 0 0 1 7.937 1.57a6.27 6.27 0 0 1 6.286 6.223v-.059A6.27 6.27 0 0 0 7.937 1.45zm0 0" fill="#fff" fill-opacity=".588"/><path d="M7.938 1.402a6.318 6.318 0 0 0-6.333 6.332 6.318 6.318 0 0 0 6.332 6.329 6.318 6.318 0 0 0 6.333-6.329 6.318 6.318 0 0 0-6.332-6.332zm0 .094a6.223 6.223 0 0 1 6.238 6.238 6.222 6.222 0 0 1-6.239 6.235A6.222 6.222 0 0 1 1.7 7.734a6.223 6.223 0 0 1 6.239-6.238zm0 0" fill="#212121"/><path d="M3.71 3.504a6.208 6.208 0 0 0-.91 1.203c-.25.438-.445.902-.581 1.387l1.336.36a4.567 4.567 0 0 1 1.136-1.97zm1.231 1.23a4.158 4.158 0 0 0-1.043 1.809l2.852.766c.055-.18.152-.348.277-.485zm4.2 3.309c-.032.09-.067.176-.114.258a1.361 1.361 0 0 1-.168.226l2.09 2.09a4.21 4.21 0 0 0 1.043-1.812zm3.191.852a4.544 4.544 0 0 1-1.137 1.968l.98.98c.352-.359.66-.761.91-1.198.255-.438.45-.903.583-1.391zm0 0" fill="#fff" fill-opacity=".588"/><path d="M959.908 615.06c-177.148 0-319.812 142.663-319.812 320.284 0 177.148 142.664 319.812 319.812 319.812 177.149 0 320.285-142.664 320.285-319.812 0-177.621-143.136-320.285-320.285-320.285zm0 160.142c88.81 0 160.143 71.331 160.143 160.142 0 88.338-71.332 159.67-160.143 159.67-88.338 0-160.142-71.332-160.142-159.67 0-88.81 71.804-160.142 160.142-160.142zm0 0" transform="rotate(.882) scale(.00827)" fill="url(#h)" stroke-width="11.339" stroke-linecap="round" stroke="#333"/><path d="M7.938 10.793c-.102 0-.208.082-.329.246-.414.578-.68.914-.664 1.324v.184c.012-.383.27-.711.664-1.258.121-.168.227-.25.329-.25.105 0 .207.082.332.25.414.578.66.91.66 1.32v-.246c0-.414-.246-.746-.66-1.324-.125-.164-.227-.246-.332-.246zm0 0" fill="#fff" fill-opacity=".392"/><path d="M6.945 12.3v.063zm0 1.126v.261c0 .184.149.329.332.329h1.325c.18 0 .328-.145.328-.329v-.261a.328.328 0 0 1-.328.328H7.277a.328.328 0 0 1-.332-.328zm0 0M7.938 10.543c-.102 0-.208.082-.329.25-.414.578-.68.91-.664 1.32v.188c.012-.383.27-.711.664-1.262.121-.164.227-.246.329-.246.105 0 .207.082.332.246.414.578.66.91.66 1.324v-.25c0-.41-.246-.742-.66-1.32-.125-.168-.227-.25-.332-.25zm0 0" fill-opacity=".235"/><path d="M7.938 10.793c-.102 0-.208.082-.329.246-.414.578-.68.914-.664 1.324v1.325c0 .183.149.328.332.328h1.325c.18 0 .328-.145.328-.328v-1.325c0-.414-.246-.746-.66-1.324-.125-.164-.227-.246-.332-.246zm0 0" fill="none" stroke-width=".09377353" stroke-linecap="square" stroke-linejoin="bevel" stroke="#212121"/></svg>
